X: 154
T: Missa De beata virgine / Sanctus
N: Derived from Rue1035d-Missa_De_beata_virgine-Sanctus.krn
C: Pierre de la Rue
%%abc-version 2.0
%%abcx-abcm2ps-target-version 5.9.1 (29 Sep 2008)
%%abc-creator hum2abc beta
%%abcx-conversion-date 2019/02/17 08:01:16
%%abc-edited-by Jesse Rodin
%%abc-edited-by Chris Gage 06-04-2012
%%abcx-initial-encoding-date 2012/06/05/
%%humdrum-veritas 2514845217
%%humdrum-veritas-data 763092493
%%linebreak <none>
%%barnumbers 0
L: 1/4
M: 3/1
Q: 1/2=120
V: 1 clef=treble
V: 2 clef=treble
V: 3 clef=treble-8
V: 4 clef=treble-8
V: 5 clef=bass
K: F
[V:1] c8c4 | 
[V:2] z12 | 
[V:3] z12 | 
[V:4] c8f4- | 
[V:5] C8F,3G, | 
[V:1] c4f6ed | 
[V:2] z12 | 
[V:3] z12 | 
[V:4] f2e2d8 | 
[V:5] A,B,C4B,A,B,4 | 
[V:1] e3de2f2d2f2 | 
[V:2] z12 | 
[V:3] z12 | 
[V:4] c6A2B4 | 
[V:5] C4z4z4 | 
[V:1] e2d3cc4=B2 | 
[V:2] z12 | 
[V:3] z12 | 
[V:4] c2d2e2f2d4 | 
[V:5] z12 | 
[V:1] c12 | 
[V:2] G8c4- | 
[V:3] c8c4 | 
[V:4] c12 | 
[V:5] z12 | 
[V:1] z4z4z2c2 | 
[V:2] c2=B2A8 | 
[V:3] f6e2d2c2 | 
[V:4] z12 | 
[V:5] z12 | 
[V:1] d2e3dg2f3e/d/ | 
[V:2] G6E2F4 | 
[V:3] B2c3Bc2d4 | 
[V:4] z12 | 
[V:5] z12 | 
[V:1] e4d2g4^f2 | 
[V:2] G2A2=B2c2A4 | 
[V:3] c4z4d4 | 
[V:4] z12 | 
[V:5] z12 | 
[V:1] g8g4 | 
[V:2] G12 | 
[V:3] e2c2c'8 | 
[V:4] c8e4 | 
[V:5] C8C4 | 
[V:1] f4d6e2 | 
[V:2] z12 | 
[V:3] a4b8 | 
[V:4] f4g8 | 
[V:5] D4G,8 | 
[V:1] f4d2f2e2c2- | 
[V:2] z12 | 
[V:3] a4b4g4 | 
[V:4] f6d2e4 | 
[V:5] D4B,4C4 | 
[V:1] c2d3cc4=B2 | 
[V:2] z12 | 
[V:3] a2defga2g4 | 
[V:4] f4d8 | 
[V:5] A,2B,3A,F,2G,4 | 
[V:1] c8d4 | 
[V:2] G8=B4 | 
[V:3] e8d4 | 
[V:4] c8z4 | 
[V:5] C,8G,3F, | 
[V:1] e4f4d4 | 
[V:2] c4d8 | 
[V:3] z2g2f2d2f4 | 
[V:4] z12 | 
[V:5] E,4D,8 | 
[V:1] e4c4d4 | 
[V:2] c6A2=B4 | 
[V:3] e6c2g4- | 
[V:4] z12 | 
[V:5] A,8G,4 | 
[V:1] e4f3ec3d | 
[V:2] c4A8 | 
[V:3] g4f3gabc'2- | 
[V:4] c8f4 | 
[V:5] C,4F,8 | 
[V:1] efg3fd3ef2- | 
[V:2] G8z4 | 
[V:3] c'2g2b3af3g | 
[V:4] e4d8 | 
[V:5] C,4G,3F,D,3E, | 
[V:1] fec3Bc2d2g2- | 
[V:2] z12 | 
[V:3] a4g8 | 
[V:4] c8B4 | 
[V:5] F,3E,C,4G,4 | 
[V:1] gfe2dcc4=B2 | 
[V:2] z12 | 
[V:3] z2g2f2a2g4 | 
[V:4] c4d8 | 
[V:5] E,4F,4G,4 | 
[V:1] c3defg2e2g2- | 
[V:2] G8c4 | 
[V:3] e4z2e2c2e2 | 
[V:4] c8z4 | 
[V:5] C,12 | 
[V:1] gfd2e2f3ec2 | 
[V:2] B4A8 | 
[V:3] d2B2c2d3cA2 | 
[V:4] z12 | 
[V:5] G,4z4z4 | 
[V:1] d2e3dcBA4 | 
[V:2] G8F4 | 
[V:3] B2c3Bc2d4 | 
[V:4] z12 | 
[V:5] z12 | 
[V:1] G4c4z2c2 | 
[V:2] G4A8 | 
[V:3] e8f4 | 
[V:4] c8A4 | 
[V:5] z4z4F,4 | 
[V:1] B3A/G/A2G4^F2 | 
[V:2] G8z4 | 
[V:3] d4e4d4 | 
[V:4] B4c3BA4 | 
[V:5] G,4C,4D,4 | 
[V:1] G4z4g4 | 
[V:2] z12 | 
[V:3] B3GA2B2G3A | 
[V:4] G2B2c2d2B2c2 | 
[V:5] z2G,2F,2D,2_E,4 | 
[V:1] f3edcc4=B2 | 
[V:2] z12 | 
[V:3] BAa4g2f2d2 | 
[V:4] d2f3ec2d4 | 
[V:5] D,3C,D,2E,2F,2G,2 | 
[V:1] c2g3fe3dcB | 
[V:2] G8E4 | 
[V:3] e8c4- | 
[V:4] c12 | 
[V:5] C,8C,4 | 
[V:1] A4G8 | 
[V:2] F4G3FE4 | 
[V:3] c2d2e3fg2c2 | 
[V:4] z4z4c4 | 
[V:5] F,4E,4C,4 | 
[V:1] z12 | 
[V:2] D2F2G2A2F2G2 | 
[V:3] B2d3cA2d2G2 | 
[V:4] d4B2c2d4 | 
[V:5] G,2D,2G,2F,2B,4 | 
[V:1] c6c2c3d | 
[V:2] A2c3=BG2A4 | 
[V:3] z2c3de2A3B | 
[V:4] c12- | 
[V:5] A,3G,F,2E,2F,4 | 
[V:1] efg3fe3dcB | 
[V:2] G12 | 
[V:3] cde3fg2c2e2 | 
[V:4] c12- | 
[V:5] C,12 | 
[V:1] A2G2c3de2c2- | 
[V:2] z4z4G4 | 
[V:3] f2g2a4g2e2 | 
[V:4] c12- | 
[V:5] F,2E,2F,4C,4 | 
[V:1] cBAGA2G2c3d | 
[V:2] A4F2G2A4 | 
[V:3] f2c3de2A3B | 
[V:4] c12- | 
[V:5] F,6E,2F,4 | 
[V:1] e12 ||  
[V:2] G12 ||  
[V:3] c12 ||  
[V:4] c12 ||  
[V:5] C,12 ||  
[V:1] [M:2/1]c8 | 
[V:2] [M:2/1]z8 | 
[V:3] [M:2/1]z8 | 
[V:4] [M:2/1]z8 | 
[V:5] [M:2/1]z8 | 
[V:1] e4f4 | 
[V:2] z8 | 
[V:3] z8 | 
[V:4] z8 | 
[V:5] z8 | 
[V:1] g6fe | 
[V:2] z8 | 
[V:3] c8 | 
[V:4] z8 | 
[V:5] z8 | 
[V:1] g4c2f2 | 
[V:2] z8 | 
[V:3] e4f4 | 
[V:4] z8 | 
[V:5] z8 | 
[V:1] e2d4cB | 
[V:2] z8 | 
[V:3] g8 | 
[V:4] z8 | 
[V:5] z8 | 
[V:1] A6B2 | 
[V:2] z8 | 
[V:3] f8- | 
[V:4] z8 | 
[V:5] F,8 | 
[V:1] c4d4 | 
[V:2] z8 | 
[V:3] f6ed | 
[V:4] z8 | 
[V:5] A,4B,4 | 
[V:1] G8 | 
[V:2] z8 | 
[V:3] e4g4- | 
[V:4] z8 | 
[V:5] C8 | 
[V:1] z8 | 
[V:2] z8 | 
[V:3] g2f2d2f2- | 
[V:4] z8 | 
[V:5] B,8- | 
[V:1] z8 | 
[V:2] z8 | 
[V:3] fedcd4 | 
[V:4] z8 | 
[V:5] B,6A,G, | 
[V:1] z8 | 
[V:2] z8 | 
[V:3] z2c3BAG | 
[V:4] z8 | 
[V:5] A,4C4- | 
[V:1] z8 | 
[V:2] z8 | 
[V:3] A2G2d3c | 
[V:4] z8 | 
[V:5] C2B,2G,2B,2- | 
[V:1] z8 | 
[V:2] z8 | 
[V:3] def4ed | 
[V:4] z8 | 
[V:5] B,2A,2F,2A,2- | 
[V:1] z4d4 | 
[V:2] z8 | 
[V:3] c2e2d4 | 
[V:4] z8 | 
[V:5] A,B,C3=B,=B,A, | 
[V:1] e2g3fe2 | 
[V:2] z8 | 
[V:3] c8- | 
[V:4] c8 | 
[V:5] C4z2C2- | 
[V:1] edc4BA | 
[V:2] z8 | 
[V:3] c8 | 
[V:4] e4f4 | 
[V:5] CB,A,G,A,4 | 
[V:1] B3cd2e2 | 
[V:2] z8 | 
[V:3] d4G4 | 
[V:4] g8 | 
[V:5] G,6C,2 | 
[V:1] f2c2d4 | 
[V:2] z8 | 
[V:3] A6B2 | 
[V:4] f8 | 
[V:5] F,3E,D,4 | 
[V:1] e2g4fe | 
[V:2] G8 | 
[V:3] c3de3f | 
[V:4] e4g4- | 
[V:5] C,8 | 
[V:1] d4z2c2 | 
[V:2] =B4c4 | 
[V:3] g8 | 
[V:4] g2f2e4 | 
[V:5] z4z2C,2 | 
[V:1] B2d4cB | 
[V:2] d8 | 
[V:3] z8 | 
[V:4] d6f2- | 
[V:5] G,4D,4 | 
[V:1] A3GA4 | 
[V:2] c8 | 
[V:3] z8 | 
[V:4] f2edc4 | 
[V:5] F,8 | 
[V:1] G6A2 | 
[V:2] B4d4- | 
[V:3] z4G4- | 
[V:4] z8 | 
[V:5] G,8- | 
[V:1] B2c2d4- | 
[V:2] d2c2B4 | 
[V:3] G2A2B3c | 
[V:4] z4d4 | 
[V:5] G,8 | 
[V:1] d2c2A3B | 
[V:2] A6c2- | 
[V:3] d6c2 | 
[V:4] f6ed | 
[V:5] D,3E,F,G,A,2- | 
[V:1] c3de2d2- | 
[V:2] c2BAG4 | 
[V:3] A2e3fg2 | 
[V:4] c6B2 | 
[V:5] A,B,C3B,G,2 | 
[V:1] dcc2B2d2- | 
[V:2] z8 | 
[V:3] e2f2g4- | 
[V:4] c4d2B2 | 
[V:5] A,4G,4 | 
[V:1] d2c2f4 | 
[V:2] z4A4 | 
[V:3] g2a2f4 | 
[V:4] c4d4 | 
[V:5] E,2F,2D,4 | 
[V:1] z2e4g2- | 
[V:2] c6BA | 
[V:3] g8 | 
[V:4] e4c4- | 
[V:5] C,8 | 
[V:1] gfd2e2f2 | 
[V:2] G6F2 | 
[V:3] z8 | 
[V:4] c2B2c2d2 | 
[V:5] z8 | 
[V:1] d2e4f2 | 
[V:2] G4A2F2 | 
[V:3] z8 | 
[V:4] B2c4d2 | 
[V:5] z8 | 
[V:1] d2e2c4 | 
[V:2] G4A4 | 
[V:3] z2g4f2 | 
[V:4] B2c2A4 | 
[V:5] z8 | 
[V:1] z4d4 | 
[V:2] B4G4- | 
[V:3] g3ab4- | 
[V:4] G8 | 
[V:5] z8 | 
[V:1] d6c2 | 
[V:2] G2F2G2A2 | 
[V:3] b2a2b2c'2 | 
[V:4] z8 | 
[V:5] z8 | 
[V:1] d4e2f2- | 
[V:2] F2G4A2 | 
[V:3] a2b4c'2 | 
[V:4] z8 | 
[V:5] z8 | 
[V:1] fed4^c2 | 
[V:2] F2G2E4 | 
[V:3] a2b2c'bag | 
[V:4] z8 | 
[V:5] z2G,2A,4 | 
[V:1] d8- | 
[V:2] D8 | 
[V:3] f4b4 | 
[V:4] z4G4 | 
[V:5] B,6A,G, | 
[V:1] d8 | 
[V:2] z8 | 
[V:3] a4d4 | 
[V:4] A4B4- | 
[V:5] F,2D,2G,4 | 
[V:1] z4d4 | 
[V:2] z8 | 
[V:3] z2b2a2g2- | 
[V:4] B2AGA2B2 | 
[V:5] z2G,2F,2G,2 | 
[V:1] e4f3e | 
[V:2] z8 | 
[V:3] geg2f2d2- | 
[V:4] c4d4 | 
[V:5] E,4D,2B,2- | 
[V:1] dcc4=B2 | 
[V:2] z4D4 | 
[V:3] def2g4 | 
[V:4] B2c2d4 | 
[V:5] B,2A,2G,4 | 
[V:1] c8- | 
[V:2] E4F4- | 
[V:3] z2g2a3b | 
[V:4] c8- | 
[V:5] C,4F,3G, | 
[V:1] c8- | 
[V:2] F2EDE2F2 | 
[V:3] c'3bg2a2 | 
[V:4] c8- | 
[V:5] A,3B,C2F,2 | 
[V:1] c8- | 
[V:2] G4A4 | 
[V:3] e2c2c'3b | 
[V:4] c8- | 
[V:5] C3B,A,G,F,2- | 
[V:1] c8- | 
[V:2] F2G2A4 | 
[V:3] a2g2f4 | 
[V:4] c8- | 
[V:5] F,2E,2F,4 | 
[V:1] c8 ||  
[V:2] G8 ||  
[V:3] e8 ||  
[V:4] c8 ||  
[V:5] C,8 ||  
[V:1] [M:3/1]z12 | 
[V:2] [M:3/1]z12 | 
[V:3] [M:3/1]g4e4f4 | 
[V:4] [M:3/1]c8A4 | 
[V:5] [M:3/1]z12 | 
[V:1] z12 | 
[V:2] z12 | 
[V:3] d4g8 | 
[V:4] B4G6A2 | 
[V:5] G,6A,2B,2C2 | 
[V:1] z12 | 
[V:2] z12 | 
[V:3] f8e4 | 
[V:4] B2c2d6c2 | 
[V:5] D4B,4C4 | 
[V:1] z4z4d4 | 
[V:2] z12 | 
[V:3] c4d8 | 
[V:4] c8=B4 | 
[V:5] A,4G,8 | 
[V:1] e6f2g4 | 
[V:2] G8E4 | 
[V:3] c12 | 
[V:4] c12 | 
[V:5] C,12 | 
[V:1] c4f6e2 | 
[V:2] F4D6E2 | 
[V:3] z12 | 
[V:4] z12 | 
[V:5] z12 | 
[V:1] d4c8 | 
[V:2] F2G2A6G2 | 
[V:3] z12 | 
[V:4] z12 | 
[V:5] z12 | 
[V:1] B4A8 | 
[V:2] G8^F4 | 
[V:3] z12 | 
[V:4] z4z4d4 | 
[V:5] z12 | 
[V:1] G4c6A2 | 
[V:2] G12 | 
[V:3] z4z4c4 | 
[V:4] e6d2e2f2 | 
[V:5] C6B,2A,4 | 
[V:1] B3cd6c2 | 
[V:2] z12 | 
[V:3] e4d6e2 | 
[V:4] g8f4 | 
[V:5] G,6F,2D,4 | 
[V:1] c8=B4 | 
[V:2] z12 | 
[V:3] g4f4d4 | 
[V:4] e4d8 | 
[V:5] E,4F,4G,4 | 
[V:1] c12 | 
[V:2] z4z4A4 | 
[V:3] e3dc3BA4 | 
[V:4] c8z4 | 
[V:5] C,4E,4F,4 | 
[V:1] z4z4g4 | 
[V:2] =B6A2B2c2 | 
[V:3] G4g6f2 | 
[V:4] z12 | 
[V:5] G,12 | 
[V:1] f6d2e3f | 
[V:2] d8c4 | 
[V:3] d6c2A4 | 
[V:4] z12 | 
[V:5] z12 | 
[V:1] g8f4 | 
[V:2] =B4A8 | 
[V:3] G4d8 | 
[V:4] z4z4d4 | 
[V:5] z12 | 
[V:1] g4e4f4 | 
[V:2] G8z4 | 
[V:3] z4g4f4 | 
[V:4] e4c4d4 | 
[V:5] z12 | 
[V:1] d4c8 | 
[V:2] z12 | 
[V:3] g4e4f4 | 
[V:4] B4c4A4 | 
[V:5] G,4A,4F,4 | 
[V:1] z12 | 
[V:2] z12 | 
[V:3] d4e6f2 | 
[V:4] B4c6B2 | 
[V:5] G,4C,6D,2 | 
[V:1] z12 | 
[V:2] z4z4A4 | 
[V:3] g8f4 | 
[V:4] G4A8 | 
[V:5] E,4D,8 | 
[V:1] d4e4c4 | 
[V:2] =B4G4A4 | 
[V:3] g4e4f4 | 
[V:4] G8z4 | 
[V:5] z12 | 
[V:1] d4B4c4 | 
[V:2] F4G4E4 | 
[V:3] d4G4g4 | 
[V:4] z12 | 
[V:5] z12 | 
[V:1] d4e6d2 | 
[V:2] F4G6F2 | 
[V:3] a4b6a2 | 
[V:4] z12 | 
[V:5] z12 | 
[V:1] d8^c4 | 
[V:2] D4E8 | 
[V:3] f4g4a4 | 
[V:4] z12 | 
[V:5] z4z4A,4 | 
[V:1] d8z4 | 
[V:2] D8z4 | 
[V:3] f4g4e4 | 
[V:4] d4B4c4 | 
[V:5] B,4G,4A,4 | 
[V:1] z12 | 
[V:2] z12 | 
[V:3] d4f4g4 | 
[V:4] B4d4e4 | 
[V:5] B,6A,2G,4 | 
[V:1] z12 | 
[V:2] z12 | 
[V:3] a4b4g4 | 
[V:4] f4d4e4 | 
[V:5] F,4G,8 | 
[V:1] c4d4e4 | 
[V:2] z12 | 
[V:3] a4f4g4 | 
[V:4] z12 | 
[V:5] F,8z4 | 
[V:1] f8z4 | 
[V:2] A4F4G4 | 
[V:3] f4a4b4 | 
[V:4] z12 | 
[V:5] z12 | 
[V:1] c8d4 | 
[V:2] F4A4B4 | 
[V:3] c'4f6g2 | 
[V:4] f6e2d4 | 
[V:5] F,8B,4 | 
[V:1] e4f4d4 | 
[V:2] c4A4B4 | 
[V:3] a8g4 | 
[V:4] c4d8 | 
[V:5] A,4F,4G,4 | 
[V:1] e8e4 | 
[V:2] c8z4 | 
[V:3] z4z4g4 | 
[V:4] c12- | 
[V:5] C,8C,4 | 
[V:1] e4f8 | 
[V:2] z12 | 
[V:3] g4a8 | 
[V:4] c12- | 
[V:5] C,4F,8 | 
[V:1] e4z4c4 | 
[V:2] c6=B2A4 | 
[V:3] g4e4f4 | 
[V:4] c12- | 
[V:5] C,8F,4 | 
[V:1] c4c6d2 | 
[V:2] G4A8 | 
[V:3] e4f8 | 
[V:4] c12- | 
[V:5] C,4F,8 | 
[V:1] e12 ||  
[V:2] G12 ||  
[V:3] e12 ||  
[V:4] c12 ||  
[V:5] C,12 ||  
[V:1] [M:2/1]c4e4- | 
[V:2] [M:2/1]z8 | 
[V:3] [M:2/1]c'4c'4- | 
[V:4] [M:2/1]z8 | 
[V:5] [M:2/1]z8 | 
[V:1] e2f2g4 | 
[V:2] z8 | 
[V:3] c'2bab2c'2 | 
[V:4] z8 | 
[V:5] z8 | 
[V:1] c3defg2- | 
[V:2] z8 | 
[V:3] a2c'4ba | 
[V:4] z8 | 
[V:5] z8 | 
[V:1] g2fef4 | 
[V:2] z8 | 
[V:3] b2c'2a4 | 
[V:4] z8 | 
[V:5] z8 | 
[V:1] g8 | 
[V:2] z8 | 
[V:3] g8 | 
[V:4] c4e4- | 
[V:5] C4C4- | 
[V:1] z8 | 
[V:2] z8 | 
[V:3] z8 | 
[V:4] e2f2g4 | 
[V:5] C2B,A,B,2C2 | 
[V:1] z8 | 
[V:2] z8 | 
[V:3] z8 | 
[V:4] c3defg2- | 
[V:5] A,2C4B,A, | 
[V:1] z8 | 
[V:2] z8 | 
[V:3] z8 | 
[V:4] g2fef4 | 
[V:5] B,2C2A,4 | 
[V:1] z8 | 
[V:2] G4=B4- | 
[V:3] g4g4- | 
[V:4] g8 | 
[V:5] G,8 | 
[V:1] z8 | 
[V:2] B2c2d4 | 
[V:3] g2fef2g2 | 
[V:4] z8 | 
[V:5] z8 | 
[V:1] z8 | 
[V:2] G3A=Bcd2- | 
[V:3] e2g4fe | 
[V:4] z8 | 
[V:5] z8 | 
[V:1] z4g4 | 
[V:2] d2c=Bc4 | 
[V:3] f2g2e4 | 
[V:4] z8 | 
[V:5] z8 | 
[V:1] f4d4 | 
[V:2] d8 | 
[V:3] d8 | 
[V:4] z4f4 | 
[V:5] z8 | 
[V:1] e2g3fd2 | 
[V:2] z8 | 
[V:3] z8 | 
[V:4] e4g4- | 
[V:5] C6B,2 | 
[V:1] e2d4cB | 
[V:2] z8 | 
[V:3] z8 | 
[V:4] g2f2d2f2- | 
[V:5] G,2B,4A,2 | 
[V:1] AGc4=B2 | 
[V:2] z8 | 
[V:3] z4g4 | 
[V:4] fedcd4 | 
[V:5] F,2A,2G,4 | 
[V:1] c3defg2- | 
[V:2] z4c4 | 
[V:3] e3fg2c2 | 
[V:4] c8 | 
[V:5] C,8 | 
[V:1] gfd3ef2- | 
[V:2] =B4d4- | 
[V:3] g6f2 | 
[V:4] z8 | 
[V:5] z8 | 
[V:1] f2edc2e2- | 
[V:2] d2c2A2c2- | 
[V:3] d2f4e2 | 
[V:4] z8 | 
[V:5] z8 | 
[V:1] edg4^f2 | 
[V:2] c=BAGA4 | 
[V:3] c2e2d4 | 
[V:4] z4d4 | 
[V:5] z8 | 
[V:1] g8 | 
[V:2] G8 | 
[V:3] z2g2e3f | 
[V:4] e3fg2c2- | 
[V:5] z8 | 
[V:1] z8 | 
[V:2] z8 | 
[V:3] g2c2z2g2 | 
[V:4] cdefg2c2- | 
[V:5] z8 | 
[V:1] z8 | 
[V:2] z8 | 
[V:3] a2b2c'3b | 
[V:4] cBG2A2c2- | 
[V:5] z8 | 
[V:1] z8 | 
[V:2] z4A4 | 
[V:3] agg4^f2 | 
[V:4] cBAGA4 | 
[V:5] z8 | 
[V:1] z2G2B3c | 
[V:2] B3cd2G2- | 
[V:3] g8- | 
[V:4] G8 | 
[V:5] z8 | 
[V:1] d2G2z2d2 | 
[V:2] GABcd2G2- | 
[V:3] g8 | 
[V:4] z8 | 
[V:5] z8 | 
[V:1] e2f2g3f | 
[V:2] GFD2E2G2- | 
[V:3] z4z2G2- | 
[V:4] z8 | 
[V:5] z8 | 
[V:1] edd4c2 | 
[V:2] GFEDE4 | 
[V:3] GAB2c4 | 
[V:4] z8 | 
[V:5] z8 | 
[V:1] d8 | 
[V:2] D8 | 
[V:3] G3AB2G2 | 
[V:4] z4d4 | 
[V:5] z2G,3A,B,2 | 
[V:1] G8 | 
[V:2] z8 | 
[V:3] c3defg2 | 
[V:4] e3fg2c2- | 
[V:5] C2C,3D,E,2 | 
[V:1] z8 | 
[V:2] z8 | 
[V:3] c3de3f | 
[V:4] cdefg2c2- | 
[V:5] F,2C,2z2C,2- | 
[V:1] z8 | 
[V:2] z8 | 
[V:3] g4c4 | 
[V:4] cBG2A2c2- | 
[V:5] C,D,E,2F,2C,D, | 
[V:1] z8 | 
[V:2] z4A4 | 
[V:3] z8 | 
[V:4] cBG2A4 | 
[V:5] E,F,G,4^F,2 | 
[V:1] z8 | 
[V:2] =B3cd2G2- | 
[V:3] z2g2g2g2 | 
[V:4] G8- | 
[V:5] G,8 | 
[V:1] z4z2g2 | 
[V:2] GA=Bcd2G2- | 
[V:3] g3fd2e2- | 
[V:4] G8- | 
[V:5] z2G,2G,2E,2- | 
[V:1] g2g2g3f | 
[V:2] GFD2E2G2- | 
[V:3] ed=B2c2G2 | 
[V:4] G8- | 
[V:5] E,F,G,2C,2E,2- | 
[V:1] e2d2c4 | 
[V:2] GFD2E4 | 
[V:3] g8- | 
[V:4] G8- | 
[V:5] E,F,G,2C,4 | 
[V:1] =B8 ||  
[V:2] D8 ||  
[V:3] g8 ||  
[V:4] G8 ||  
[V:5] G,8 ||  



